X: 0
T: Abarani shoror
B: incoming
M:2/4
L:1/8
Q: 1/4=120
K:G
V:1 
 G>A B>A      | A>G B>G      |\
 AF/G/ E>D    | G>A F/E/F/G/ |
 AG/A/ F>G    | EA- A>F      |\
 G>A B>A      | A>G B>G      |
 AF/G/ E>D    | G>A F/E/F/G/ |\
 AG/A/ F>G    | E2 ^c/d/e/f/ |
 g>d b>a      | a>g g>d      |\
 bb/a/ a>g    |g>d bb/a/     |
 a>g a/g/a/g/ | f g2 z       :|\
 G>A B>A      | A>G B>G      |
 AF/G/ E>D    | G>A F/E/F/G/ |\
 AG/A/ F>G    |EA- A>F       |
 G>A B>A      | A>G B>G      |\
 AF/G/ E>D    | G>A F/E/F/G/ |
 AG/A/ F>G    | E2 z2        |\
 g>d b>a      |a>g g>d       |
 bb/a/ aa/g/  | g>d bb/a/    |\
 a>g a/g/a    |[1 f g2 z     :|[2
 |]
V:2 
 G4           |\
 G4           | G2 E2-       |\
 E4-          |
 E4-          | (E4          |\
 E4-)         | E4-          |
 E4-          | E4-          |\
 E4-          | E2 z2        |
 B2 d2        |c2 B2         |\
 d2 c2        | B2 d2        |
 c4           | A B3         :|\
 E>A A/A/A-   | AE A>E       |
 A/E/E E2     | D>D AD       |\
 A2 E>E       | E2 z2        |
 E>A A/A/A-   | AE A>E       |\
 A/E/E E2     | E>E F/G/E    |
 D D2 D       | E2 z2        |\
 B2 d2        | c2 B2        |
 d2 c2        |B2 d2         |\
 c4           |[1 A B3       :|[2
 z2           |]
V:3 
 x4           |\
 x4           | x4           |\
 x4           |
 x4           | x4           |\
 x4           | x4           |
 x4           | x4           |\
 x4           | x4           |
 G4           | G4           |\
 G4           | G4           |
 G4           |G4            :|\
 x4           | x4           |
 x4           | x4           |\
 x4           | x4           |
 x4           | x4           |\
 x4           | x4           |
 x4           | x2 ^C/D/E/F/ |\
 G4           | G4           |
 G4           | G4           |\
 G4           |[1 G4         :|[2
 x2           |]
W: from Martin Junghans/Jutta Weber-Karn transcription
W: http://www.folkloretanznoten.de/
W: extracting score using Audiveris OMR engine
% abcbook-tune_id 63cb082f9c2e4fddbdeb2a2b
% abcbook-tune_composer_id 
% abcbook-boost 0
% abcbook-difficulty 0
% abcbook-tags balkan dances
% abcbook-tablature 
% abcbook-transpose 
% abcbook-tuning 
% abcbook-lastupdated 1674250287865
% abcbook-soundfonts 
% abcbook-repeats 1
%%score 1 ( 2 3 )

